public/rights.svg

<?xml version="1.0"?>
<svg xmlns="http://www.w3.org/2000/svg" xmlns:xlink="http://www.w3.org/1999/xlink" xmlns:svgjs="http://svgjs.com/svgjs" version="1.1" width="512" height="512" x="0" y="0" viewBox="0 0 512 512" style="enable-background:new 0 0 512 512" xml:space="preserve" class=""><g><g xmlns="http://www.w3.org/2000/svg"><g><path d="m507.984 317.691c-2.528-1.887-5.799-2.474-8.822-1.577-4.829 1.429-9.983 2.312-15.209 2.663 6.719-22.653 10.132-46.146 10.132-70.032 0-65.856-25.699-127.769-72.362-174.333-46.658-46.557-108.688-72.197-174.666-72.197-49.632 0-97.5 14.628-138.431 42.302-4.575 3.094-5.776 9.31-2.683 13.885 3.094 4.576 9.312 5.777 13.886 2.683 37.609-25.429 81.604-38.871 127.228-38.871 125.184 0 227.028 101.621 227.028 226.53 0 23.474-3.581 46.53-10.633 68.662-14.795-3.08-27.292-10.734-30.875-22.666-1.27-4.229-5.162-7.124-9.577-7.124s-8.308 2.896-9.577 7.124c-6.383 21.252-41.016 28.938-66.554 21.373-3.029-.897-6.296-.312-8.824 1.575-2.527 1.888-4.017 4.857-4.017 8.013v6.348h-76.972v-151.817c16.199-3.781 28.971-16.526 32.765-32.695h52.169l-45.272 72.344c-.053.085-.093.163-.138.244-.875 1.486-1.386 3.212-1.386 5.061 0 35.706 29.092 64.755 64.85 64.755s64.849-29.049 64.849-64.755c0-1.87-.523-3.613-1.416-5.11-.036-.065-.066-.128-.108-.194l-54.849-87.649c-1.801-2.879-5.076-4.695-8.477-4.695h-70.221c-4.544-19.393-21.987-33.883-42.766-33.883-20.792 0-38.246 14.49-42.793 33.883h-70.222c-3.446 0-6.649 1.774-8.477 4.695l-54.85 87.649c-.036.058-.062.114-.094.172-.902 1.502-1.43 3.254-1.43 5.133 0 35.706 29.092 64.755 64.85 64.755s64.849-29.049 64.849-64.755c0-1.854-.514-3.584-1.393-5.073-.043-.077-.08-.152-.13-.232l-45.271-72.344h52.169c3.796 16.17 16.58 28.917 32.791 32.696v151.818h-76.682c-19.815 0-35.937 16.095-35.937 35.879v25.879c0 5.523 4.478 10 10 10h199.59v5.527c0 16.667 4.588 30.872 12.228 43.163-30.732 14.895-64.784 22.748-99.2 22.748-125.197-.001-227.054-101.609-227.054-226.502 0-45.511 13.479-89.428 38.979-127.003 3.102-4.57 1.911-10.789-2.659-13.89-4.567-3.101-10.789-1.912-13.89 2.659-27.758 40.902-42.43 88.702-42.43 138.234 0 65.846 25.7 127.75 72.367 174.309 46.661 46.554 108.701 72.192 174.689 72.192 38.887 0 77.369-9.195 111.814-26.652 16.092 16.807 38.023 29.468 59.707 40.159 1.394.687 2.907 1.031 4.422 1.031 1.513 0 3.026-.343 4.42-1.03 41.824-20.609 84.58-48.537 84.58-99.419v-83.633c.001-3.155-1.487-6.124-4.015-8.012zm-147.94-47.75c-21.286 0-39.156-14.876-43.721-34.755h87.44c-4.564 19.879-22.434 34.755-43.719 34.755zm36.795-54.755h-73.59l36.795-58.798zm-262.797-58.798 36.795 58.798h-73.59zm0 113.553c-21.286 0-39.156-14.876-43.721-34.755h87.44c-4.564 19.879-22.434 34.755-43.719 34.755zm89.057-132.404c0-13.169 10.747-23.883 23.958-23.883 13.195 0 23.931 10.714 23.931 23.883 0 13.153-10.735 23.854-23.931 23.854-13.211.001-23.958-10.701-23.958-23.854zm-78.661 246.272v-15.879c0-8.756 7.149-15.879 15.937-15.879h173.653v31.758zm347.562 25.527c0 31.251-20.065 54.418-68.999 79.267-24.821-12.612-42.199-24.791-53.309-37.81-.496-.8-1.084-1.508-1.75-2.115-9.566-12.021-13.914-24.807-13.914-39.341v-71.28c25.526 3.569 53.639-3.321 68.973-20.545 15.341 17.222 43.466 24.115 68.999 20.542z" fill="#000000" data-original="#000000" style="" class=""/><path d="m458.143 368.698c-4.231-3.55-10.539-2.999-14.089 1.232l-31.048 36.997-12.263-10.373c-4.215-3.566-10.526-3.041-14.093 1.177-3.566 4.216-3.04 10.526 1.177 14.093l19.928 16.856c1.812 1.533 4.103 2.365 6.458 2.365.283 0 .567-.012.852-.036 2.649-.227 5.1-1.499 6.809-3.536l37.501-44.687c3.549-4.23 2.998-10.538-1.232-14.088z" fill="#000000" data-original="#000000" style="" class=""/><path d="m79.426 91.459c2.567 0 5.137-.98 7.093-2.936 3.905-3.905 3.905-10.237 0-14.143-3.906-3.905-10.236-3.905-14.143 0l-.028.028c-3.905 3.905-3.891 10.223.015 14.128 1.949 1.951 4.505 2.923 7.063 2.923z" fill="#000000" data-original="#000000" style="" class=""/></g></g></g></svg>

<svg width="512" height="512" viewBox="0 0 512 512" fill="none" xmlns="http://www.w3.org/2000/svg">
<g clip-path="url(#clip0)">
<path d="M507.984 317.691C505.456 315.804 502.185 315.217 499.162 316.114C494.333 317.543 489.179 318.426 483.953 318.777C490.672 296.124 494.085 272.631 494.085 248.745C494.085 182.889 468.386 120.976 421.723 74.412C375.065 27.855 313.035 2.21497 247.057 2.21497C197.425 2.21497 149.557 16.843 108.626 44.517C104.051 47.611 102.85 53.827 105.943 58.402C109.037 62.978 115.255 64.179 119.829 61.085C157.438 35.656 201.433 22.214 247.057 22.214C372.241 22.214 474.085 123.835 474.085 248.744C474.085 272.218 470.504 295.274 463.452 317.406C448.657 314.326 436.16 306.672 432.577 294.74C431.307 290.511 427.415 287.616 423 287.616C418.585 287.616 414.692 290.512 413.423 294.74C407.04 315.992 372.407 323.678 346.869 316.113C343.84 315.216 340.573 315.801 338.045 317.688C335.518 319.576 334.028 322.545 334.028 325.701V332.049H257.056V180.232C273.255 176.451 286.027 163.706 289.821 147.537H341.99L296.718 219.881C296.665 219.966 296.625 220.044 296.58 220.125C295.705 221.611 295.194 223.337 295.194 225.186C295.194 260.892 324.286 289.941 360.044 289.941C395.802 289.941 424.893 260.892 424.893 225.186C424.893 223.316 424.37 221.573 423.477 220.076C423.441 220.011 423.411 219.948 423.369 219.882L368.52 132.233C366.719 129.354 363.444 127.538 360.043 127.538H289.822C285.278 108.145 267.835 93.655 247.056 93.655C226.264 93.655 208.81 108.145 204.263 127.538H134.041C130.595 127.538 127.392 129.312 125.564 132.233L70.714 219.882C70.678 219.94 70.652 219.996 70.62 220.054C69.718 221.556 69.19 223.308 69.19 225.187C69.19 260.893 98.282 289.942 134.04 289.942C169.798 289.942 198.889 260.893 198.889 225.187C198.889 223.333 198.375 221.603 197.496 220.114C197.453 220.037 197.416 219.962 197.366 219.882L152.095 147.538H204.264C208.06 163.708 220.844 176.455 237.055 180.234V332.052H160.373C140.558 332.052 124.436 348.147 124.436 367.931V393.81C124.436 399.333 128.914 403.81 134.436 403.81H334.026V409.337C334.026 426.004 338.614 440.209 346.254 452.5C315.522 467.395 281.47 475.248 247.054 475.248C121.857 475.247 20 373.639 20 248.746C20 203.235 33.479 159.318 58.979 121.743C62.081 117.173 60.89 110.954 56.32 107.853C51.753 104.752 45.531 105.941 42.43 110.512C14.672 151.414 0 199.214 0 248.746C0 314.592 25.7 376.496 72.367 423.055C119.028 469.609 181.068 495.247 247.056 495.247C285.943 495.247 324.425 486.052 358.87 468.595C374.962 485.402 396.893 498.063 418.577 508.754C419.971 509.441 421.484 509.785 422.999 509.785C424.512 509.785 426.025 509.442 427.419 508.755C469.243 488.146 511.999 460.218 511.999 409.336V325.703C512 322.548 510.512 319.579 507.984 317.691V317.691ZM360.044 269.941C338.758 269.941 320.888 255.065 316.323 235.186H403.763C399.199 255.065 381.329 269.941 360.044 269.941ZM396.839 215.186H323.249L360.044 156.388L396.839 215.186ZM134.042 156.388L170.837 215.186H97.247L134.042 156.388ZM134.042 269.941C112.756 269.941 94.886 255.065 90.321 235.186H177.761C173.197 255.065 155.327 269.941 134.042 269.941ZM223.099 137.537C223.099 124.368 233.846 113.654 247.057 113.654C260.252 113.654 270.988 124.368 270.988 137.537C270.988 150.69 260.253 161.391 247.057 161.391C233.846 161.392 223.099 150.69 223.099 137.537ZM144.438 383.809V367.93C144.438 359.174 151.587 352.051 160.375 352.051H334.028V383.809H144.438ZM492 409.336C492 440.587 471.935 463.754 423.001 488.603C398.18 475.991 380.802 463.812 369.692 450.793C369.196 449.993 368.608 449.285 367.942 448.678C358.376 436.657 354.028 423.871 354.028 409.337V338.057C379.554 341.626 407.667 334.736 423.001 317.512C438.342 334.734 466.467 341.627 492 338.054V409.336Z" fill="#2B2B2B"/>
<path d="M458.143 368.698C453.912 365.148 447.604 365.699 444.054 369.93L413.006 406.927L400.743 396.554C396.528 392.988 390.217 393.513 386.65 397.731C383.084 401.947 383.61 408.257 387.827 411.824L407.755 428.68C409.567 430.213 411.858 431.045 414.213 431.045C414.496 431.045 414.78 431.033 415.065 431.009C417.714 430.782 420.165 429.51 421.874 427.473L459.375 382.786C462.924 378.556 462.373 372.248 458.143 368.698V368.698Z" fill="#2B2B2B"/>
<path d="M79.426 91.4589C81.993 91.4589 84.563 90.4789 86.519 88.5229C90.424 84.6179 90.424 78.2859 86.519 74.3799C82.613 70.4749 76.283 70.4749 72.376 74.3799L72.348 74.4079C68.443 78.3129 68.457 84.6309 72.363 88.5359C74.312 90.4869 76.868 91.4589 79.426 91.4589Z" fill="#2B2B2B"/>
</g>
<defs>
<clipPath id="clip0">
<rect width="512" height="512" fill="white"/>
</clipPath>
</defs>
</svg>
